X: 1
T: String Quartet in D Major opus 33 no 6 mvt 3
C: Franz Joseph Haydn
%%abc-version 2.0
%%abcx-abcm2ps-target-version 5.9.1 (29 Sep 2008)
%%abc-creator hum2abc beta
%%abcx-conversion-date 2021/02/14 14:38:13
%%abc-copyright Copyright (c) 1994, 2000 Center for Computer Assisted Research in the Humanities
%%abc-edited-by Frances Bennion
%%abcx-initial-encoding-date 1997/04/15
%%gracespace 0 6 6
%%humdrum-veritas 807887582
%%humdrum-veritas-data 4185537133
%%linebreak <none>
%%barnumbers 0
L: 1/4
M: 3/4
N: Derived from op33n6-03.krn
Q: "Scherzo: Allegretto"
%%staves [1 2 3 4]
V: 1
V: 2
V: 3 clef=alto
V: 4 clef=bass
K: D
[V:1]z z A [I:setbarnb1] |
[V:2]z2 A, |
[V:3]z2 z |
[V:4]z2 z |
[V:1]G F F |
[V:2]C D D |
[V:3]z3 |
[V:4]z z D, |
[V:1]F2 B |
[V:2]D2 D |
[V:3]z3 |
[V:4]C, B,, B,, |
[V:1]A ^G G |
[V:2]C B, B, |
[V:3]z z E |
[V:4]E,3 |
[V:1]A2 G |
[V:2]A,2 z |
[V:3]D C B, |
[V:4]A,,2 z |
[V:1]F E B |
[V:2]z z B, |
[V:3]A, G, z |
[V:4]z z G, |
[V:1]A G e |
[V:2]^D E G |
[V:3]z z B |
[V:4]F, E, E, |
[V:1]d c c |
[V:2]F E E |
[V:3]A G E |
[V:4]A,2 A,, |
[V:1]d z2 |
[V:2]F z =c |
[V:3]D z A |
[V:4]D, z2 |
[V:1]z z b |
[V:2]B A F |
[V:3]G F B |
[V:4]z z ^D |
[V:1]a g z |
[V:2]F G B |
[V:3]B2 G |
[V:4]E2 z |
[V:1]z z a |
[V:2]A G E |
[V:3]F E A |
[V:4]z z C |
[V:1]g f d' |
[V:2]E F D |
[V:3]A2 A |
[V:4]D2 F, |
[V:1]c' b a |
[V:2]D3 |
[V:3]G G, A, |
[V:4]G,2 A, |
[V:1]a g/e/ f/d/ |
[V:2]D E D |
[V:3]B, C D |
[V:4]B, C D |
[V:1]A2 z |
[V:2]A,2 A |
[V:3]A,2 F |
[V:4]A,,3- |
[V:1]z z B |
[V:2]G F F |
[V:3]E ^D D |
[V:4]A,,3- |
[V:1]A G G |
[V:2]F G G |
[V:3]^D E E |
[V:4]A,,3- |
[V:1]G2 A |
[V:2]F E E |
[V:3]D C C |
[V:4]A,,3- |
[V:1]G F F |
[V:2]E F D |
[V:3]C D F, |
[V:4]A,, z D, |
[V:1]F2 B |
[V:2]D2 D |
[V:3]E, D, z |
[V:4]C, B,, B,, |
[V:1]A ^G G |
[V:2]C B, B, |
[V:3]z z E |
[V:4]E,3 |
[V:1]A2 G |
[V:2]A,2 z |
[V:3]D C B, |
[V:4]A,,3 |
[V:1]F E B |
[V:2]z z B, |
[V:3]A, G, z |
[V:4]z z G, |
[V:1]A G e |
[V:2]^D E G |
[V:3]z z B |
[V:4]F, E, E, |
[V:1]d c c |
[V:2]F E E |
[V:3]A G A |
[V:4]A,2 A,, |
[V:1]d z2 |
[V:2]D z2 |
[V:3]G F z |
[V:4]D, z C/D/ |
[V:1]z f f |
[V:2]z d d |
[V:3]z3 |
[V:4]D, D/C/ B,/A,/ |
[V:1]g g z |
[V:2]e e z |
[V:3]z3 |
[V:4]G, G, F,/G,/ |
[V:1]z e e |
[V:2]z c c |
[V:3]z3 |
[V:4]A,, A,/G,/ F,/E,/ |
[V:1]f f z |
[V:2]d d z |
[V:3]z3 |
[V:4]D, D, C,/D,/ |
[V:1]z d' d' |
[V:2]z f f |
[V:3]z3 |
[V:4]D,, D,/C,/ B,,/A,,/ |
[V:1]d'2 c' |
[V:2]e3 |
[V:3]B2 A |
[V:4]^G,,/B,,/ E,/^G,/ A, |
[V:1]b a ^g |
[V:2]d c B |
[V:3]F E E |
[V:4]D, E, E, |
[V:1]a2 ^g/a/ |
[V:2]A2 z |
[V:3]A,2 z |
[V:4]A,,2 z |
[V:1]A b/a/ g/f/ |
[V:2]z3 |
[V:3]z z ^d/e/ |
[V:4]z3 |
[V:1]g g f/g/ |
[V:2]z3 |
[V:3]E e/d/ c/B/ |
[V:4]z3 |
[V:1]A a/g/ f/e/ |
[V:2]z3 |
[V:3]c c c/d/ |
[V:4]z3 |
[V:1]f f g/f/ |
[V:2]z3 |
[V:3]D d/c/ B/A/ |
[V:4]z3 |
[V:1]b/a/ g/f/ b/a/ |
[V:2]d3 |
[V:3]G/F/ B/A/ G/F/ |
[V:4]z3 |
[V:1]g/f/ b/a/ g/f/ |
[V:2]d3 |
[V:3]B/A/ G/F/ B/A/ |
[V:4]z3 |
[V:1]b/a/ g/f/ e/d/ |
[V:2]d3 |
[V:3]G/F/ B/A/ G/^G/ |
[V:4]z3 |
[V:1]A2 c'/d'/ |
[V:2]A z2 |
[V:3]A A, z |
[V:4]z3 |
[V:1]d d'/c'/ b/a/ |
[V:2]z F F |
[V:3]z D D |
[V:4]z D D |
[V:1]g g f/g/ |
[V:2]G G z |
[V:3]E E z |
[V:4]E E z |
[V:1]A a/g/ f/e/ |
[V:2]z E E |
[V:3]z C C |
[V:4]z C C |
[V:1]d d c/d/ |
[V:2]F F c/d/ |
[V:3]D D C/D/ |
[V:4]D D C,/D,/ |
[V:1]D C/D/ E/F/ |
[V:2]D C/D/ E/F/ |
[V:3]D, C,/D,/ E,/F,/ |
[V:4]D,, C,,/D,,/ E,,/F,,/ |
[V:1]G/A/ B/c/ d/e/ |
[V:2]G/A/ B/c/ d/e/ |
[V:3]G,/A,/ B,/C/ D/E/ |
[V:4]G,,/A,,/ B,,/C,/ D,/E,/ |
[V:1]f a c |
[V:2]f a E |
[V:3]F A G |
[V:4]F, A, A,, |
[V:1]d z2 |]
[V:2]F z2 |]
[V:3]F z2 |]
[V:4]D, z2 |]

